X: 3252
T: The LEGACY
%R: jig
B: James Kerr "Merry Melodies" v.3 p.28 #252
Z: 2016 John Chambers <jc:trillian.mit.edu>
M: 6/8
L: 1/8
K: G
|:\
vG2vG GDB, | vd2vd dBG |\
G2A BAB | E2F G3 ::\
GBd g2g | fed edB |\
GBd g2g | fed e2f |\
ggg fdB | eee dBG |\
G2A BAB | E2F G3 :|

%%sep 1 1 500
%%sep 1 1 500

